svgs/duotone/brackets-curly.svg

<svg xmlns="http://www.w3.org/2000/svg" viewBox="0 0 576 512"><!-- Font Awesome Pro 6.0.0-alpha2 by @fontawesome - https://fontawesome.com License - https://fontawesome.com/license (Commercial License) --><defs><style>.fa-secondary{opacity:.4}</style></defs><path d="M566.625 233.375L521.375 188.125C515.372 182.122 512 173.981 512 165.492V128C512 74.981 469.019 32 416 32H384C366.327 32 352 46.327 352 64V64C352 81.673 366.327 96 384 96H416C433.6 96 448 110.4 448 128V165.5C448 190.952 458.111 215.361 476.108 233.358L498.75 256L476.108 278.642C458.111 296.639 448 321.048 448 346.5V384C448 401.6 433.6 416 416 416H384C366.327 416 352 430.327 352 448V448C352 465.673 366.327 480 384 480H416C469.019 480 512 437.019 512 384V346.5C512 338.016 515.37 329.88 521.369 323.881L566.625 278.625C579.12 266.13 579.12 245.87 566.625 233.375Z" class="fa-secondary"/><path d="M191.997 32H159.997C106.977 32 63.997 74.981 63.997 128V165.5C63.997 173.984 60.626 182.12 54.627 188.119L9.372 233.375C-3.124 245.87 -3.124 266.13 9.372 278.625L54.627 323.881C60.626 329.88 63.997 338.016 63.997 346.5V384C63.997 437.019 106.977 480 159.997 480H191.997C209.67 480 223.997 465.673 223.997 448V448C223.997 430.327 209.67 416 191.997 416H159.997C142.397 416 127.997 401.6 127.997 384V346.5C127.997 321.048 117.886 296.639 99.889 278.642L77.247 256L99.872 233.375C117.88 215.367 127.997 190.943 127.997 165.475V128C127.997 110.4 142.397 96 159.997 96H191.997C209.67 96 223.997 81.673 223.997 64V64C223.997 46.327 209.67 32 191.997 32Z" class="fa-primary"/></svg>

<svg xmlns="http://www.w3.org/2000/svg" viewBox="0 0 576 512"><!--! Font Awesome Pro 6.3.0 by @fontawesome - https://fontawesome.com License - https://fontawesome.com/license (Commercial License) Copyright 2023 Fonticons, Inc. --><defs><style>.fa-secondary{opacity:.4}</style></defs><path class="fa-primary" d="M192 32H160C106.1 32 64 74.98 64 128v37.5c0 8.484-3.37 16.62-9.369 22.62L9.375 233.4c-12.5 12.5-12.5 32.75 0 45.25l45.26 45.26C60.63 329.9 64 338 64 346.5V384c0 53.02 42.98 96 96 96h32C209.7 480 224 465.7 224 448S209.7 416 192 416H160c-17.6 0-32-14.4-32-32v-37.5c0-25.45-10.11-49.86-28.11-67.86L77.25 256l22.63-22.62C117.9 215.4 128 190.9 128 165.5V128c0-17.6 14.4-32 32-32h32C209.7 96 224 81.67 224 64S209.7 32 192 32z"/><path class="fa-secondary" d="M566.6 233.4l-45.25-45.25C515.4 182.1 512 173.1 512 165.5V128c0-53.02-42.98-96-96-96h-32C366.3 32 352 46.33 352 63.1S366.3 96 383.1 96H416c17.6 0 32 14.4 32 32v37.5c0 25.45 10.11 49.86 28.11 67.86L498.8 256l-22.64 22.64C458.1 296.6 448 321 448 346.5V384c0 17.6-14.4 32-32 32h-32C366.3 416 352 430.3 352 447.1S366.3 480 383.1 480H416c53.02 0 96-42.98 96-96v-37.5c0-8.484 3.37-16.62 9.369-22.62l45.26-45.26C579.1 266.1 579.1 245.9 566.6 233.4z"/></svg>
